X: 26679
T: Midsummer's Night
R: reel
M: 4/4
K: Gmajor
egdB ~A2AG|EG~G2 EGd2|eBdB A2 (3Bcd|e2af gedg|
eBdB ~A2AG|EG~G2 EGDE|GFGA BG (3Bcd|1 e2dB BABd:|2 e2dB cAFA||
~G2GA BG (3Bcd|g2ga baga|bage dG (3Bcd|e2ge edBA|
~G2GA BG (3Bcd|g2ga ba~a2|bage dG (3Bcd|1 egfg edBA:|2 e2ge edBd||

